!!!OTL: Mawangu
!!!ARE: Asia, China,ÿHainan
!! II, 385, 1)
!!!SCT: C1976
!!!YEM: Copyright 1995, estate of Helmut Schaffrath.
**kern
*ICvox
*Ivox
*M2/4
*k[f#c#g#d#]
*E:
{4g#
4ee
=1
4g#
4ee
=2
8cc#
8ee
8ee
8g#
=3
2b}
=4
{8cc#
8ee
8cc#
8b
=5
8a
8g#
4f#
=6
8g#
8b
8g#
8c#
=7
2e}
=8
{8.e
16c#
8e
8f#
=9
4g#
4b
=10
8g#
8b
8g#
8c#
=11
2e}
==
!!!AGN: Xiaodiao
!!!AMT: simple duple
!!!AIN: vox
!!!EED: Helmut Schaffrath
!!!EEV: 1.0
*-
